lib/assets/icons/svg/outlined-product-bagproduct.svg

<svg xmlns="http://www.w3.org/2000/svg" viewBox="0 0 24 24"><path d="M7.129 20.452a1.788 1.788 0 0 1-1.18-.46 1.808 1.808 0 0 1-.63-1.48l1.08-8.21a1.91 1.91 0 0 1 1.95-1.58h.667l-.337-1.65a2.16 2.16 0 0 1 .83-2.41h.09l2.38-1a1.16 1.16 0 0 1 1 0c.502.303.846.811.94 1.39l.821 3.67h.919a1.87 1.87 0 0 1 1.92 1.55l1.08 8.18c.083.444-.042.901-.34 1.24a2.07 2.07 0 0 1-1.59.73h-9.6zm1.17-10.74a.92.92 0 0 0-.92.75l-1.07 8.12a.889.889 0 0 0 .3.64.76.76 0 0 0 .61.2h9.51c.313.01.613-.127.81-.37a.52.52 0 0 0 .14-.43l-1.08-8.17a.89.89 0 0 0-.93-.71h-7.37zm4.7-4.55a1.001 1.001 0 0 0-.4-.69.15.15 0 0 0-.16 0l-2.35 1a1.209 1.209 0 0 0-.42 1.32l.405 1.93h3.634z"/></svg>

<svg viewBox="0 0 24 24" xmlns="http://www.w3.org/2000/svg">
  <path  d="M 7.129 20.452 C 6.693 20.448 6.273 20.284 5.949 19.992 C 5.577 19.674 5.35 19.22 5.319 18.732 C 5.314 18.659 5.314 18.585 5.319 18.512 L 6.399 10.302 C 6.563 9.362 7.396 8.688 8.349 8.722 L 9.016 8.722 L 8.679 7.072 C 8.402 6.174 8.737 5.199 9.509 4.662 L 9.599 4.662 L 11.979 3.662 C 12.295 3.511 12.663 3.511 12.979 3.662 C 13.481 3.965 13.825 4.473 13.919 5.052 L 14.74 8.722 L 15.659 8.722 C 16.597 8.683 17.419 9.346 17.579 10.272 L 18.659 18.452 C 18.742 18.896 18.617 19.353 18.319 19.692 C 17.923 20.158 17.341 20.426 16.729 20.422 L 7.129 20.422 Z M 8.299 9.712 C 7.851 9.704 7.462 10.021 7.379 10.462 L 6.309 18.582 C 6.316 18.828 6.425 19.059 6.609 19.222 C 6.773 19.375 6.996 19.449 7.219 19.422 L 16.729 19.422 C 17.042 19.432 17.342 19.295 17.539 19.052 C 17.649 18.938 17.7 18.779 17.679 18.622 L 16.599 10.452 C 16.51 10.016 16.113 9.713 15.669 9.742 L 8.299 9.742 Z M 12.999 5.162 C 12.967 4.886 12.822 4.637 12.599 4.472 C 12.55 4.441 12.488 4.441 12.439 4.472 L 10.089 5.472 C 9.686 5.78 9.518 6.307 9.669 6.792 L 10.074 8.722 L 13.708 8.722 Z"/>
</svg>
